X:990
T:Reel 990
M:4/4
K:Gmaj
L:1/8
dc|:B>G (3GGG BGd2|B>G (3GGG d2cB|c>A (3AAA cAeA|cdef gedc|B>G (3GGG DGBG|B>G (3BAG g2fg|efge dedc|BGAF G2|Bd|gfge fgaf|gfge dBAG|caa^g aecB|Aaa^g aecA|gfge fgaf|gfaf gdBd|cBAc BGAF|DGFA G2|
